arb/images/icons/mobile-logos.svg

<svg width="30" height="31" viewBox="0 0 30 31" fill="none" xmlns="http://www.w3.org/2000/svg">
<path d="M18.2508 6.55794C19.5531 6.81203 20.75 7.44895 21.6882 8.38719C22.6265 9.32543 23.2634 10.5223 23.5175 11.8246M18.2508 1.22461C20.9565 1.52519 23.4796 2.73684 25.4058 4.66062C27.332 6.5844 28.5468 9.10595 28.8508 11.8113M27.5175 22.4513V26.4513C27.519 26.8226 27.4429 27.1902 27.2942 27.5304C27.1454 27.8706 26.9272 28.1761 26.6536 28.4271C26.38 28.6781 26.0569 28.8693 25.7052 28.9882C25.3534 29.1072 24.9807 29.1514 24.6108 29.1179C20.5079 28.6721 16.5668 27.2701 13.1042 25.0246C9.88259 22.9775 7.15127 20.2462 5.10416 17.0246C2.85079 13.5462 1.44848 9.58593 1.01082 5.46461C0.977503 5.0959 1.02132 4.72429 1.13949 4.37344C1.25766 4.02259 1.44758 3.70019 1.69718 3.42677C1.94677 3.15335 2.25056 2.93489 2.58921 2.78531C2.92786 2.63572 3.29394 2.55829 3.66416 2.55794H7.66416C8.31123 2.55157 8.93855 2.78071 9.42917 3.20265C9.9198 3.62459 10.2403 4.21054 10.3308 4.85128C10.4997 6.13136 10.8128 7.38824 11.2642 8.59794C11.4435 9.07517 11.4824 9.59383 11.376 10.0924C11.2697 10.5911 11.0226 11.0488 10.6642 11.4113L8.97082 13.1046C10.8689 16.4427 13.6328 19.2065 16.9708 21.1046L18.6642 19.4113C19.0267 19.0528 19.4844 18.8057 19.983 18.6994C20.4816 18.5931 21.0003 18.6319 21.4775 18.8113C22.6872 19.2627 23.9441 19.5758 25.2242 19.7446C25.8718 19.836 26.4634 20.1622 26.8862 20.6613C27.309 21.1603 27.5337 21.7974 27.5175 22.4513Z" stroke="#687A95" stroke-width="2" stroke-linecap="round" stroke-linejoin="round"/>
</svg>

<svg width="30" height="31" fill="none" xmlns="http://www.w3.org/2000/svg"><path d="M18.25 6.558a6.667 6.667 0 015.267 5.267m-5.266-10.6a12 12 0 0110.6 10.586m-1.334 10.64v4a2.668 2.668 0 01-2.906 2.667 26.386 26.386 0 01-11.507-4.093 25.999 25.999 0 01-8-8 26.387 26.387 0 01-4.093-11.56 2.667 2.667 0 012.653-2.907h4a2.667 2.667 0 012.667 2.293 17.16 17.16 0 00.933 3.747 2.667 2.667 0 01-.6 2.813l-1.693 1.694a21.334 21.334 0 008 8l1.693-1.694a2.666 2.666 0 012.813-.6c1.21.452 2.467.765 3.747.934a2.667 2.667 0 012.293 2.706z" stroke="#687A95" stroke-width="2" stroke-linecap="round" stroke-linejoin="round"/></svg>
